lib/svg/sync.svg

<svg xmlns="http://www.w3.org/2000/svg" width="12" height="16" viewBox="0 0 12 16"><path d="M10.24 7.4a4.15 4.15 0 0 1-1.2 3.6 4.346 4.346 0 0 1-5.41.54L4.8 10.4.5 9.8l.6 4.2 1.31-1.26c2.36 1.74 5.7 1.57 7.84-.54a5.876 5.876 0 0 0 1.74-4.46l-1.75-.34zM2.96 5a4.346 4.346 0 0 1 5.41-.54L7.2 5.6l4.3.6-.6-4.2-1.31 1.26c-2.36-1.74-5.7-1.57-7.85.54C.5 5.03-.06 6.65.01 8.26l1.75.35A4.17 4.17 0 0 1 2.96 5z"/></svg>

<?xml version="1.0" encoding="UTF-8" standalone="no"?>
<svg width="12px" height="16px" viewBox="0 0 12 16" version="1.1" xmlns="http://www.w3.org/2000/svg" xmlns:xlink="http://www.w3.org/1999/xlink">
    <!-- Generator: Sketch 3.8.3 (29802) - http://www.bohemiancoding.com/sketch -->
    <title>sync</title>
    <desc>Created with Sketch.</desc>
    <defs></defs>
    <g id="Octicons" stroke="none" stroke-width="1" fill="none" fill-rule="evenodd">
        <g id="sync" fill="#000000">
            <path d="M10.24,7.4 C10.43,8.68 10.04,10.02 9.04,11 C7.57,12.45 5.3,12.63 3.63,11.54 L4.8,10.4 L0.5,9.8 L1.1,14 L2.41,12.74 C4.77,14.48 8.11,14.31 10.25,12.2 C11.49,10.97 12.06,9.35 11.99,7.74 L10.24,7.4 L10.24,7.4 Z M2.96,5 C4.43,3.55 6.7,3.37 8.37,4.46 L7.2,5.6 L11.5,6.2 L10.9,2 L9.59,3.26 C7.23,1.52 3.89,1.69 1.74,3.8 C0.5,5.03 -0.06,6.65 0.01,8.26 L1.76,8.61 C1.57,7.33 1.96,5.98 2.96,5 L2.96,5 Z" id="Shape"></path>
        </g>
    </g>
</svg>
